X:26
T:Hpps simple chords 48
M:3/4
L:1/8
K:D
F>G [A/D,/F,/A,/]B/A/ F>A | d>f a>f [gG,B,D]>a | b>a g>f e>d | [cE,G,B,]>d e>d c>d | B>c [AA,CEG]>B G>A |
F>F G>^G [A/D,/F,/A,/]B/A/ | F>A d>f a>f | [gG,B,D]>a b>a g>f | e>d [cA,CEG]>b a>g |
f>A B>c [d2D,2F,2A,2] | f2 d2 F>G | [A/D,/F,/A,/]B/A/ F>A d>f | a>f [gG,B,D]>a b>a |
g>f e>d [cE,G,B,]>d | e>d c>d B>c | [AA,CEG]>B G>A F>F | G>^G [A/D,/F,/A,/]B/A/ F>A |
d>f a>f [gG,B,D]>a | b>a g>f e>d | [cA,CEG]>b a>g f>A | B>c [d2D,2F,2A,2] f2 |
d2 e2 [e/A,/C/E/]f/e/ | c>e a>e c'>e | [bE,^G,B,D]>e g>e a>e | b>e [e/A,/C/E/]f/e/ c>e |
a>e c'>e [bE,^G,B,D]>e | ^g>e a4 | [a/A,/C/E/G/]b/a/ g>a e>a | c2 [a/D,/F,/A,/]b/a/ f>a |
d>a A2 [g/G,/B,/D/]a/g/ | G>(3gfgf A>f | [eA,CEG]>A B>c d2 | e2 [e/A,/C/E/]f/e/ c>e |
a>e c'>e [bE,^G,B,D]>e | ^g>e a>e b>e | [e/A,/C/E/]f/e/ c>e a>e | c'>e [bE,^G,B,D]>e g>e |
a4 [a/A,/C/E/G/]b/a/ | g>a e>a c2 | [a/D,/F,/A,/]b/a/ f>a d>a | A2 [g/G,/B,/D/]a/g/ G>(3gfg |
f A>f [eA,CEG]>A | B>c d2 |


